X:99
T:A Miko Russell Reel                                                                               
M:4/4                                                                                               
L:1/8                                                                                               
K:D                                                                                                 
ABAG FGAB|cAdc BGGB|ABAG FGfg|1 fdec AddB:|2 fdec Adde|                                             
ffdf efge|ffdf ecAe|ffdf efge|afge fdde|                                                            
ffdf efge|ffdf ecAA|ABcd efge|afge fddB |>|
